X:1
T:Title
%%score ( 1 2 ) { 3 | 4 }
L:1/8
Q:1/4=100
M:4/4
K:Ab
V:1 treble nm="Grand Piano, Soprano"
V:2 treble 
V:3 bass nm="Choir Pad, Blessed Are They Who Do"
V:4 bass 
V:1
 [Ec][Ec] [Ec]2 [DB]2 [CA]2 | [CE]2 [_C=D][=CE] [_DF]2 [CE]2 | EFGA [EB]2 [Ec]2 | %3
w: By~Henry~Robert~Trickett * * * *|||
 [Ed]2 [Ge]2 [Ac]4 | [Ec][Ec] [Ec]2 [EB]2 [EA]2 | [CE]2 [_C=D][=CE] [_DF]2 [CE]2 | %6
w: |||
 B,-[B,F]GA [EB]2 [Ec]2 | [Ed]2 G-[DG] [CA]4 | B-[EB-] [EB]2 [Ge]2 [Gd]2 | .A2 z2 A4 | B4 e2 z2 | %11
w: |||||
 c8 | [Ec][Ec] [Ec]2 [DB]2 [CA]2 | [CE]2 [_C=D][=CE] [_DF]2 [CE]2 | B,-[B,F]GA [EB]2 [Ge]2 | %15
w: ||||
 [Ac][Ac] [GB]2 A4- | A4 z4 |] %17
w: ||
V:2
 x8 | x8 | B,2 E2 z4 | x8 | x8 | x8 | .E2 E2 z4 | z2 .E2 z4 | .E2 z2 z4 | c-[Ac-] [Ac]2 E2 E2 | %10
 GG G2 G2- [Gd]2 | AA A2 A4 | x8 | x8 | .E2 E2 z4 | x8 | x8 |] %17
V:3
 A,A, A,2 A,2 A,2 | A,2 A,A, A,2 A,2 | G,A,B,[K:treble]C D2 C2 | B,2 B,2[K:bass] A,4 | %4
 A,A, A,2 D2 C2 | A,2 A,A, A,2 A,2 | G,A,B,[K:treble]C D2 C2 | B,2 B,2[K:bass] A,4 | %8
 G,G, G,2 B,2 B,2 | A,A, A,2[K:treble] C2 C2 | EE E2[K:bass] B,4 | A,A, C2 E4 | A,A, A,2 A,2 A,2 | %13
 A,2 A,2 A,2 A,2 | G,A,B,[K:treble]C D2 B,2 | A,A,ED C4- | C4 z4 |] %17
V:4
 z8 | A,,2 A,,A,, A,,2 A,,2 | E,2 E,2 E,2 E,2 | E,2 E,2 z4 | z4 A,2 A,2 | A,,2 A,,A,, A,,2 A,,2 | %6
 E,2 E,2 E,2 E,2 | E,2 E,2 A,,4 | E,E, E,2 E,2 E,2 | z4 A,2 A,2 | E,E, E,2 E,4 | z2 A,2 A,4 | %12
 A,,A,, A,,2 A,,2 A,,2 | A,,2 A,,2 A,,2 A,,2 | E,2 E,2 E,2 E,2 | z2 E,2 A,,4- | A,,4 z4 |] %17

